X: 55
T: No_49_Double_Dance_Song_(a).krn
N: Derived from No_49_Double_Dance_Song_(a).krn
%%abc-version 2.0
%%abcx-abcm2ps-target-version 5.9.1 (29 Sep 2008)
%%abc-creator hum2abc beta
%%abcx-conversion-date 2019/03/15 08:36:49
%%humdrum-veritas 1008585510
%%humdrum-veritas-data 4041922998
%%linebreak <none>
%%barnumbers 0
L: 1/8
M: 2/4
%%staves {1 2}
V: 1 clef=bass
V: 2 clef=bass
K: D
[V:1] [K:clef=bass][M:2/4]B,/B,3/A,2 | 
[V:2] [K:clef=bass][M:2/4]G,,2G,,2 | 
[V:1] B,3A, ||  
[V:2] G,,2G,,2 ||  
[V:1] [M:3/4]B,/B,3/A,2(B,/A,/)F, ||  
[V:2] [M:3/4]G,,2G,,2G,,2 ||  
[V:1] [M:2/4]E,/E,3/D,2 | 
[V:2] [M:2/4]z4 | 
[V:1] D,4 | 
[V:2] z4 | 
[V:1] B,/B,3/A,2 | 
[V:2] z4 | 
[V:1] B,3A, ||  
[V:2] z4 ||  
[V:1] [M:3/4]B,/B,3/A,2(B,/A,/)F, ||  
[V:2] [M:3/4]z6 ||  
[V:1] [M:2/4]F,3A, | 
[V:2] [M:2/4]z4 | 
[V:1] B,3A, ||  
[V:2] z4 ||  
[V:1] [M:3/4]B,/B,3/A,2(B,/A,/)F, ||  
[V:2] [M:3/4]z6 ||  
[V:1] [M:2/4]F,2F,2 | 
[V:2] [M:2/4]z4 | 
[V:1] F,4 |]  
[V:2] z4 |]  



